X:103
T:Reel 103
M:4/4
K:Dmaj
L:1/8
AG|FEDF ECA,B,|CB,CD EFGE|FDDF EA,CE|FDEC D2:|FG|A=cBA GFEG|AddB A2de|fdec fdcB|Addc A2FG|AFFE FGEF| (3FGA AB c2Bc|dBcA BGAF| (3DEF EC D2|
